X: 703
T: Hua shanmianr
%%abc-version 2.0
%%abcx-abcm2ps-target-version 5.9.1 (29 Sep 2008)
%%abc-creator hum2abc beta
%%abcx-conversion-date 2013/10/02 07:52:30
%%abc-edited-by Helmut Schaffrath
%%humdrum-veritas 4229281048
%%humdrum-veritas-data 976962811
%%continueall 1
%%barnumbers 0
L: 1/8
M: 2/4
K: Eb
B> c B G [I:setbarnb 1]| 
BF2B | 
B B G3/ F/ | 
E3E | 
E F F c | 
B GF2 | 
B B E C | 
B,4 | 
E CE2- | 
EF2B | 
B2C E | 
F CB,2 | 
B c B G | 
B cB2 | 
A> G F E | 
F G B B | 
z2g2 | 
z G G G | 
G c B G | 
G F B B | 
E CB,2- | 
B,2z2 |]  



